static/img/kroki/d323a244138e99d00413f506f84f1328.svg

<?xml version="1.0" encoding="us-ascii" standalone="no"?><svg xmlns="http://www.w3.org/2000/svg" xmlns:xlink="http://www.w3.org/1999/xlink" contentStyleType="text/css" height="374px" preserveAspectRatio="none" style="width:674px;height:374px;" version="1.1" viewBox="0 0 674 374" width="674px" zoomAndPan="magnify"><defs/><g><!--class azure_machine_learning_base_model_version--><g id="elem_azure_machine_learning_base_model_version"><rect codeLine="23" fill="#3D176E" height="39.7891" id="azure_machine_learning_base_model_version" rx="2.5" ry="2.5" style="stroke:#000D19;stroke-width:0.5;" width="425" x="242.5" y="167.79"/><ellipse cx="257.5" cy="187.6845" fill="#ADD1B2" rx="11" ry="11" style="stroke:#181818;stroke-width:1.0;"/><path d="M260.4688,193.3252 Q259.8906,193.622 259.25,193.7627 Q258.6094,193.9189 257.9063,193.9189 Q255.4063,193.9189 254.0781,192.2783 Q252.7656,190.622 252.7656,187.497 Q252.7656,184.372 254.0781,182.7158 Q255.4063,181.0595 257.9063,181.0595 Q258.6094,181.0595 259.25,181.2158 Q259.9063,181.372 260.4688,181.6689 L260.4688,184.3877 Q259.8438,183.8095 259.25,183.5439 Q258.6563,183.2627 258.0313,183.2627 Q256.6875,183.2627 256,184.3408 Q255.3125,185.4033 255.3125,187.497 Q255.3125,189.5908 256,190.6689 Q256.6875,191.7314 258.0313,191.7314 Q258.6563,191.7314 259.25,191.4658 Q259.8438,191.1845 260.4688,190.6064 L260.4688,193.3252 Z " fill="#000000"/><text fill="#D9B8FF" font-family="Helvetica" font-size="17" lengthAdjust="spacing" textLength="383" x="276.5" y="193.5698">azure_machine_learning_base_model_version</text></g><!--class azure_machine_learning_workspace_model_version--><g id="elem_azure_machine_learning_workspace_model_version"><rect codeLine="26" fill="#3D176E" height="39.7891" id="azure_machine_learning_workspace_model_version" rx="2.5" ry="2.5" style="stroke:#000D19;stroke-width:0.5;" width="475" x="42.5" y="328.58"/><ellipse cx="57.5" cy="348.4745" fill="#ADD1B2" rx="11" ry="11" style="stroke:#181818;stroke-width:1.0;"/><path d="M60.4688,354.1152 Q59.8906,354.412 59.25,354.5527 Q58.6094,354.7089 57.9063,354.7089 Q55.4063,354.7089 54.0781,353.0683 Q52.7656,351.412 52.7656,348.287 Q52.7656,345.162 54.0781,343.5058 Q55.4063,341.8495 57.9063,341.8495 Q58.6094,341.8495 59.25,342.0058 Q59.9063,342.162 60.4688,342.4589 L60.4688,345.1777 Q59.8438,344.5995 59.25,344.3339 Q58.6563,344.0527 58.0313,344.0527 Q56.6875,344.0527 56,345.1308 Q55.3125,346.1933 55.3125,348.287 Q55.3125,350.3808 56,351.4589 Q56.6875,352.5214 58.0313,352.5214 Q58.6563,352.5214 59.25,352.2558 Q59.8438,351.9745 60.4688,351.3964 L60.4688,354.1152 Z " fill="#000000"/><text fill="#D9B8FF" font-family="Helvetica" font-size="17" lengthAdjust="spacing" textLength="433" x="76.5" y="354.3598">azure_machine_learning_workspace_model_version</text></g><!--class azure_proxy_resource--><g id="elem_azure_proxy_resource"><rect codeLine="29" fill="#3D176E" height="39.7891" id="azure_proxy_resource" rx="2.5" ry="2.5" style="stroke:#000D19;stroke-width:0.5;" width="224" x="343" y="7"/><ellipse cx="358" cy="26.8945" fill="#ADD1B2" rx="11" ry="11" style="stroke:#181818;stroke-width:1.0;"/><path d="M360.9688,32.5352 Q360.3906,32.832 359.75,32.9727 Q359.1094,33.1289 358.4063,33.1289 Q355.9063,33.1289 354.5781,31.4883 Q353.2656,29.832 353.2656,26.707 Q353.2656,23.582 354.5781,21.9258 Q355.9063,20.2695 358.4063,20.2695 Q359.1094,20.2695 359.75,20.4258 Q360.4063,20.582 360.9688,20.8789 L360.9688,23.5977 Q360.3438,23.0195 359.75,22.7539 Q359.1563,22.4727 358.5313,22.4727 Q357.1875,22.4727 356.5,23.5508 Q355.8125,24.6133 355.8125,26.707 Q355.8125,28.8008 356.5,29.8789 Q357.1875,30.9414 358.5313,30.9414 Q359.1563,30.9414 359.75,30.6758 Q360.3438,30.3945 360.9688,29.8164 L360.9688,32.5352 Z " fill="#000000"/><text fill="#D9B8FF" font-family="Helvetica" font-size="17" lengthAdjust="spacing" textLength="182" x="377" y="32.7798">azure_proxy_resource</text></g><!--class microsoft_resource--><g id="elem_microsoft_resource"><rect codeLine="32" fill="#3D176E" height="39.7891" id="microsoft_resource" rx="2.5" ry="2.5" style="stroke:#000D19;stroke-width:0.5;" width="200" x="7" y="167.79"/><ellipse cx="22" cy="187.6845" fill="#ADD1B2" rx="11" ry="11" style="stroke:#181818;stroke-width:1.0;"/><path d="M24.9688,193.3252 Q24.3906,193.622 23.75,193.7627 Q23.1094,193.9189 22.4063,193.9189 Q19.9063,193.9189 18.5781,192.2783 Q17.2656,190.622 17.2656,187.497 Q17.2656,184.372 18.5781,182.7158 Q19.9063,181.0595 22.4063,181.0595 Q23.1094,181.0595 23.75,181.2158 Q24.4063,181.372 24.9688,181.6689 L24.9688,184.3877 Q24.3438,183.8095 23.75,183.5439 Q23.1563,183.2627 22.5313,183.2627 Q21.1875,183.2627 20.5,184.3408 Q19.8125,185.4033 19.8125,187.497 Q19.8125,189.5908 20.5,190.6689 Q21.1875,191.7314 22.5313,191.7314 Q23.1563,191.7314 23.75,191.4658 Q24.3438,191.1845 24.9688,190.6064 L24.9688,193.3252 Z " fill="#000000"/><text fill="#D9B8FF" font-family="Helvetica" font-size="17" lengthAdjust="spacing" textLength="158" x="41" y="193.5698">microsoft_resource</text></g><!--class resource--><g id="elem_resource"><rect codeLine="35" fill="#3D176E" height="39.7891" id="resource" rx="2.5" ry="2.5" style="stroke:#000D19;stroke-width:0.5;" width="113" x="50.5" y="7"/><ellipse cx="65.5" cy="26.8945" fill="#ADD1B2" rx="11" ry="11" style="stroke:#181818;stroke-width:1.0;"/><path d="M68.4688,32.5352 Q67.8906,32.832 67.25,32.9727 Q66.6094,33.1289 65.9063,33.1289 Q63.4063,33.1289 62.0781,31.4883 Q60.7656,29.832 60.7656,26.707 Q60.7656,23.582 62.0781,21.9258 Q63.4063,20.2695 65.9063,20.2695 Q66.6094,20.2695 67.25,20.4258 Q67.9063,20.582 68.4688,20.8789 L68.4688,23.5977 Q67.8438,23.0195 67.25,22.7539 Q66.6563,22.4727 66.0313,22.4727 Q64.6875,22.4727 64,23.5508 Q63.3125,24.6133 63.3125,26.707 Q63.3125,28.8008 64,29.8789 Q64.6875,30.9414 66.0313,30.9414 Q66.6563,30.9414 67.25,30.6758 Q67.8438,30.3945 68.4688,29.8164 L68.4688,32.5352 Z " fill="#000000"/><text fill="#D9B8FF" font-family="Helvetica" font-size="17" lengthAdjust="spacing" textLength="71" x="84.5" y="32.7798">resource</text></g><!--reverse link azure_proxy_resource to azure_machine_learning_base_model_version--><g id="link_azure_proxy_resource_azure_machine_learning_base_model_version"><path codeLine="38" d="M455,65.05 C455,95.57 455,136.9 455,167.46 " fill="none" id="azure_proxy_resource-backto-azure_machine_learning_base_model_version" style="stroke:#FFAF37;stroke-width:2.0;"/><polygon fill="none" points="455,47.05,449,65.05,461,65.05,455,47.05" style="stroke:#FFAF37;stroke-width:2.0;"/></g><!--reverse link azure_machine_learning_base_model_version to azure_machine_learning_workspace_model_version--><g id="link_azure_machine_learning_base_model_version_azure_machine_learning_workspace_model_version"><path codeLine="39" d="M420.5607,219.9367 C386.9307,250.4567 334.87,297.69 301.18,328.25 " fill="none" id="azure_machine_learning_base_model_version-backto-azure_machine_learning_workspace_model_version" style="stroke:#FFAF37;stroke-width:2.0;"/><polygon fill="none" points="433.89,207.84,416.5285,215.4936,424.5929,224.3798,433.89,207.84" style="stroke:#FFAF37;stroke-width:2.0;"/></g><!--reverse link microsoft_resource to azure_machine_learning_workspace_model_version--><g id="link_microsoft_resource_azure_machine_learning_workspace_model_version"><path codeLine="40" d="M141.1307,220.0119 C174.3807,250.5319 225.76,297.69 259.06,328.25 " fill="none" id="microsoft_resource-backto-azure_machine_learning_workspace_model_version" style="stroke:#FFAF37;stroke-width:2.0;"/><polygon fill="none" points="127.87,207.84,137.0734,224.4321,145.188,215.5917,127.87,207.84" style="stroke:#FFAF37;stroke-width:2.0;"/></g><!--reverse link resource to microsoft_resource--><g id="link_resource_microsoft_resource"><path codeLine="41" d="M107,65.05 C107,95.57 107,136.9 107,167.46 " fill="none" id="resource-backto-microsoft_resource" style="stroke:#FFAF37;stroke-width:2.0;"/><polygon fill="none" points="107,47.05,101,65.05,113,65.05,107,47.05" style="stroke:#FFAF37;stroke-width:2.0;"/></g><!--SRC=[dP91Jy9048Nl_HMRS2O1YGA95oGnUY56l3VJtLcwQRlJp6v1KF-xHTIiBHJYTTutRzxRR6eK2YnAlnK55WcoYrncR0aCXPWnqsPEER7eQGrwD6wAzsJzMM011Oe7pDVeZOGcyP8QcLbqJbm5qXt8RCLKMNMmzmpMrH9Q7r3p79oRUSycgJm6OTGqcMZT99kclP4QZc-mXH4hv6zaC1YeuRI9d3tLsVkNM9eTYc7uQ0los8hPEl55TQRS4q78Lj4V_MJ69r3As9Mu3cRFXqniaV_Cboaesknf3RaBppYFZEIt9SvRhN0wKNfy57uy1KTo_tG2TXLZN81CZSKuHs1RNuyJSFMK5ERnklx9XgnuYwAFxgKDSLR_B7bsisHwtSQCZYgM6Eg5aKoEj3-g_fqTzRfzx_VxbxUABk_VwNoYUdIapxzy6jjjs-WJ]--></g></svg>

<svg xmlns="http://www.w3.org/2000/svg" width="674" height="374" viewBox="0 0 674 374"><rect width="425" height="39.789" x="242.5" y="167.79" fill="#3D176E" rx="2.5" ry="2.5" style="stroke:#000d19;stroke-width:.5"/><circle cx="257.5" cy="187.685" r="11" fill="#ADD1B2" style="stroke:#181818;stroke-width:1"/><path d="M260.469 193.325q-.578.297-1.219.438-.64.156-1.344.156-2.5 0-3.828-1.64-1.312-1.657-1.312-4.782t1.312-4.781q1.328-1.656 3.828-1.656.703 0 1.344.156.656.156 1.219.453v2.719q-.625-.578-1.219-.844-.594-.281-1.219-.281-1.344 0-2.031 1.078-.687 1.062-.687 3.156t.687 3.172q.688 1.062 2.031 1.062.625 0 1.219-.265.594-.281 1.219-.86z"/><text x="276.5" y="193.57" fill="#D9B8FF" font-family="Helvetica" font-size="17" textLength="383">azure_machine_learning_base_model_version</text><rect width="475" height="39.789" x="42.5" y="328.58" fill="#3D176E" rx="2.5" ry="2.5" style="stroke:#000d19;stroke-width:.5"/><circle cx="57.5" cy="348.474" r="11" fill="#ADD1B2" style="stroke:#181818;stroke-width:1"/><path d="M60.469 354.115q-.578.297-1.219.438-.64.156-1.344.156-2.5 0-3.828-1.64-1.312-1.657-1.312-4.782t1.312-4.781q1.328-1.656 3.828-1.656.703 0 1.344.156.656.156 1.219.453v2.719q-.625-.579-1.219-.844-.594-.281-1.219-.281-1.343 0-2.031 1.078-.687 1.062-.687 3.156t.687 3.172q.688 1.062 2.031 1.062.625 0 1.219-.265.594-.281 1.219-.86z"/><text x="76.5" y="354.36" fill="#D9B8FF" font-family="Helvetica" font-size="17" textLength="433">azure_machine_learning_workspace_model_version</text><rect width="224" height="39.789" x="343" y="7" fill="#3D176E" rx="2.5" ry="2.5" style="stroke:#000d19;stroke-width:.5"/><circle cx="358" cy="26.895" r="11" fill="#ADD1B2" style="stroke:#181818;stroke-width:1"/><path d="M360.969 32.535q-.578.297-1.219.438-.64.156-1.344.156-2.5 0-3.828-1.64-1.312-1.657-1.312-4.782t1.312-4.781q1.328-1.656 3.828-1.656.703 0 1.344.156.656.156 1.219.453v2.719q-.625-.578-1.219-.844-.594-.281-1.219-.281-1.344 0-2.031 1.078-.687 1.062-.687 3.156t.687 3.172q.688 1.062 2.031 1.062.625 0 1.219-.265.594-.281 1.219-.86z"/><text x="377" y="32.78" fill="#D9B8FF" font-family="Helvetica" font-size="17" textLength="182">azure_proxy_resource</text><rect width="200" height="39.789" x="7" y="167.79" fill="#3D176E" rx="2.5" ry="2.5" style="stroke:#000d19;stroke-width:.5"/><circle cx="22" cy="187.685" r="11" fill="#ADD1B2" style="stroke:#181818;stroke-width:1"/><path d="M24.969 193.325q-.578.297-1.219.438-.64.156-1.344.156-2.5 0-3.828-1.64-1.312-1.657-1.312-4.782t1.312-4.781q1.328-1.656 3.828-1.656.703 0 1.344.156.656.156 1.219.453v2.719q-.625-.578-1.219-.844-.594-.281-1.219-.281-1.343 0-2.031 1.078-.687 1.062-.687 3.156t.687 3.172q.688 1.062 2.031 1.062.625 0 1.219-.265.594-.281 1.219-.86z"/><text x="41" y="193.57" fill="#D9B8FF" font-family="Helvetica" font-size="17" textLength="158">microsoft_resource</text><rect width="113" height="39.789" x="50.5" y="7" fill="#3D176E" rx="2.5" ry="2.5" style="stroke:#000d19;stroke-width:.5"/><circle cx="65.5" cy="26.895" r="11" fill="#ADD1B2" style="stroke:#181818;stroke-width:1"/><path d="M68.469 32.535q-.578.297-1.219.438-.64.156-1.344.156-2.5 0-3.828-1.64-1.312-1.657-1.312-4.782t1.312-4.781q1.328-1.656 3.828-1.656.703 0 1.344.156.656.156 1.219.453v2.719q-.625-.578-1.219-.844-.594-.281-1.219-.281-1.344 0-2.031 1.078-.687 1.062-.687 3.156T64 29.879q.688 1.062 2.031 1.062.625 0 1.219-.265.594-.281 1.219-.86z"/><text x="84.5" y="32.78" fill="#D9B8FF" font-family="Helvetica" font-size="17" textLength="71">resource</text><path fill="none" d="M455 65.05v102.41m0-120.41-6 18h12zm-34.44 172.887c-33.63 30.52-85.69 77.753-119.38 108.313m132.71-120.41-17.361 7.654 8.064 8.886z" style="stroke:#ffaf37;stroke-width:2"/><g fill="none"><path d="M141.13 220.012c33.25 30.52 84.63 77.678 117.93 108.238" style="stroke:#ffaf37;stroke-width:2"/><path d="m127.87 207.84 9.203 16.592 8.115-8.84z" style="stroke:#ffaf37;stroke-width:2"/></g><path fill="none" d="M107 65.05v102.41m0-120.41-6 18h12z" style="stroke:#ffaf37;stroke-width:2"/></svg>
